public/assets/img/dashBoard_house.svg

<svg width="261" height="226" viewBox="0 0 261 226" fill="none" xmlns="http://www.w3.org/2000/svg">
<rect width="8.32165" height="127.045" rx="4.16083" transform="matrix(4.78566e-08 1 1 -3.99252e-08 129.186 211.365)" fill="#1BAF45"/>
<rect width="10.1231" height="126.674" rx="5.06156" transform="matrix(-1 0 0 1 256.231 93.012)" fill="#1BAF45"/>
<path d="M141.102 4.14269C138.602 2.15598 134.778 2.45659 132.612 4.81006C130.472 7.13593 130.769 10.5817 133.276 12.5065L248.41 100.894C250.125 102.211 252.64 102.212 254.401 100.896C256.678 99.193 256.76 96.0448 254.573 94.3068L141.102 4.14269Z" fill="#1BAF45"/>
<path d="M19.633 101.987C17.0994 103.922 13.29 103.548 11.1742 101.158C9.08231 98.7943 9.44487 95.3585 11.984 93.4836L133.269 3.92799C134.996 2.65265 137.488 2.69131 139.22 4.02032C141.483 5.75722 141.517 8.92076 139.29 10.6212L19.633 101.987Z" fill="#1BAF45"/>
<path d="M18.737 117.437C46.4927 118.738 72.061 129.865 90.7283 148.762C109.396 167.659 118.894 192.026 117.466 217.381C117.389 218.75 116.116 219.799 114.618 219.729C113.12 219.658 111.971 218.495 112.048 217.127C113.401 193.095 104.398 169.995 86.7017 152.08C69.0049 134.166 44.7698 123.619 18.4607 122.384C17.7135 122.349 17.0508 122.041 16.5855 121.57C16.1202 121.099 15.8524 120.465 15.8908 119.783C15.9657 118.416 17.2408 117.365 18.737 117.437Z" fill="#1BAF45"/>
<path d="M94.9448 216.323C94.8678 217.691 93.5947 218.74 92.0965 218.67C91.3493 218.635 90.6866 218.327 90.2214 217.856C89.7561 217.385 89.4882 216.751 89.5266 216.069C91.685 177.725 59.2866 144.928 17.3055 142.959C15.8073 142.888 14.6586 141.725 14.7356 140.357C14.8126 138.989 16.0856 137.939 17.5838 138.01C62.5461 140.119 97.2549 175.248 94.9448 216.323Z" fill="#1BAF45"/>
<path d="M57.2544 176.349C67.8412 187.066 73.2244 200.886 72.4176 215.266C72.3406 216.634 71.0676 217.683 69.5694 217.613C68.0711 217.543 66.9225 216.38 66.9994 215.012C67.7318 201.955 62.842 189.403 53.2258 179.669C43.6095 169.934 30.4408 164.205 16.1464 163.533C15.3992 163.498 14.7365 163.189 14.2713 162.718C13.806 162.247 13.5381 161.614 13.5765 160.931C13.6535 159.563 14.9265 158.513 16.4247 158.584C32.1658 159.322 46.6676 165.631 57.2544 176.349Z" fill="#1BAF45"/>
<path d="M38.3037 191.966C44.8684 198.612 44.2899 208.898 37.0122 214.896C29.7345 220.894 18.4728 220.365 11.9081 213.72C5.34155 207.072 5.92007 196.786 13.1978 190.788C20.4755 184.791 31.7372 185.319 38.3037 191.966ZM15.9387 210.398C20.5006 215.016 28.3233 215.381 33.3793 211.215C38.4352 207.048 38.8371 199.901 34.2771 195.285C29.717 190.669 21.8907 190.3 16.8348 194.466C11.7788 198.633 11.3769 205.78 15.9387 210.398Z" fill="#1BAF45"/>
</svg>

<svg id="Calque_1" data-name="Calque 1" xmlns="http://www.w3.org/2000/svg" viewBox="0 0 248.89 216.9"><defs><style>.cls-1{fill:#00861c;}.cls-2{fill:#1baf45;}</style></defs><title>dashBoard_house</title><path class="cls-1" d="M129.19,215.53h0a4.16,4.16,0,0,0,4.16,4.16H252.07a4.16,4.16,0,0,0,4.16-4.16h0a4.16,4.16,0,0,0-4.16-4.16H133.35A4.16,4.16,0,0,0,129.19,215.53Z" transform="translate(-7.34 -2.83)"/><path class="cls-1" d="M251.17,93h0a5.06,5.06,0,0,0-5.06,5.06V214.62a5.06,5.06,0,0,0,5.06,5.07h0a5.07,5.07,0,0,0,5.06-5.07V98.07A5.07,5.07,0,0,0,251.17,93Z" transform="translate(-7.34 -2.83)"/><path class="cls-1" d="M141.1,4.14a6.38,6.38,0,0,0-8.49.67,5.14,5.14,0,0,0,.67,7.7l115.13,88.38a5,5,0,0,0,6,0,4.08,4.08,0,0,0,.17-6.59Z" transform="translate(-7.34 -2.83)"/><path class="cls-2" d="M19.63,102a6.36,6.36,0,0,1-8.46-.83A5.14,5.14,0,0,1,12,93.48L133.27,3.93a5,5,0,0,1,5.95.09,4.08,4.08,0,0,1,.07,6.6Z" transform="translate(-7.34 -2.83)"/><path class="cls-2" d="M18.74,117.44c27.75,1.3,53.32,12.43,72,31.32s28.16,43.27,26.74,68.62a2.63,2.63,0,0,1-2.85,2.35,2.57,2.57,0,0,1-2.57-2.6c1.35-24-7.65-47.14-25.35-65s-41.93-28.46-68.24-29.7a2.76,2.76,0,0,1-1.87-.81,2.34,2.34,0,0,1-.7-1.79A2.63,2.63,0,0,1,18.74,117.44Z" transform="translate(-7.34 -2.83)"/><path class="cls-2" d="M94.94,216.32a2.62,2.62,0,0,1-2.84,2.35,2.85,2.85,0,0,1-1.88-.81,2.38,2.38,0,0,1-.69-1.79c2.15-38.34-30.24-71.14-72.22-73.11a2.57,2.57,0,0,1-2.57-2.6A2.62,2.62,0,0,1,17.58,138C62.55,140.12,97.25,175.25,94.94,216.32Z" transform="translate(-7.34 -2.83)"/><path class="cls-2" d="M57.25,176.35c10.59,10.72,16,24.54,15.17,38.92a2.63,2.63,0,0,1-2.85,2.34A2.57,2.57,0,0,1,67,215c.73-13-4.16-25.61-13.77-35.34a55.5,55.5,0,0,0-37.08-16.14,2.81,2.81,0,0,1-1.88-.81,2.36,2.36,0,0,1-.69-1.79,2.62,2.62,0,0,1,2.84-2.35A61,61,0,0,1,57.25,176.35Z" transform="translate(-7.34 -2.83)"/><path class="cls-2" d="M38.3,192A15.28,15.28,0,0,1,37,214.9a19,19,0,0,1-25.1-1.18,15.28,15.28,0,0,1,1.29-22.93A19,19,0,0,1,38.3,192ZM15.94,210.4a13.19,13.19,0,0,0,17.44.81,10.61,10.61,0,0,0,.9-15.92,13.21,13.21,0,0,0-17.45-.82A10.62,10.62,0,0,0,15.94,210.4Z" transform="translate(-7.34 -2.83)"/></svg>
